www/assets/icons/desktop_access_disabled.svg

<svg width="24" height="24" viewBox="0 0 24 24" xmlns="http://www.w3.org/2000/svg" fill='currentColor'><g clip-path="url(#clip0_1616_4699)"><path d="M23.5 15.1C23.5 16.2 22.6 17.1 21.5 17.1H20.5L18.5 15.1H21.5V3.10002H6.5L4.5 1.10002H21.5C22.6 1.10002 23.5 2.00002 23.5 3.10002V15.1ZM15.4 17.1L21.4 23.1L22.7 21.8L16 15.1L1.7 0.900024L0.5 2.20002L1.5 3.20002V15.1C1.5 16.2 2.4 17.1 3.5 17.1H10.5V19.1H8.5V21.1H16.5V19.1H14.5V17.1H15.4ZM3.5 15.1V5.20002L13.4 15.1H3.5Z"/></g><defs><clipPath id="clip0_1616_4699"><rect width="24" height="24"/></clipPath></defs></svg>

<svg xmlns="http://www.w3.org/2000/svg" width="24" height="24" viewBox="0 0 24 24" fill='currentColor'><g clip-path="url(#a)"><path d="M23.5 15.1c0 1.1-.9 2-2 2h-1l-2-2h3v-12h-15l-2-2h17c1.1 0 2 .9 2 2zm-8.1 2 6 6 1.3-1.3-6.7-6.7L1.7.9.5 2.2l1 1v11.9c0 1.1.9 2 2 2h7v2h-2v2h8v-2h-2v-2zm-11.9-2V5.2l9.9 9.9z"/></g><defs><clipPath id="a"><path d="M0 0h24v24H0z"/></clipPath></defs></svg>
